X:1
T:Title
%%score { ( 1 3 5 ) | ( 2 4 6 ) }
L:1/8
Q:1/4=100
M:2/4
K:Ab
V:1 treble nm="Grand Piano"
V:3 treble 
V:5 treble 
V:2 bass 
V:4 bass 
V:6 bass 
V:1
 [CE]>[CE] [_CF][=CE] | [Ec]2 [EA]2 | B>F GF | .D2 z2 | [CE]>[CE] [_CF][=CE] | [Ec]2 [CEA]2 | %6
w: J.~W.~Barrington * * *||||||
 [B,EG][EB] c>B | E4 | B>B cB | A2 E2 | d>d ed | c4 | [Gc]>[Gd] [Gc][GB] | [GB]2 [FA]2 | %14
w: ||||||||
 [EG]>[FA] [EG][=DF] | E4 | [CE]>[CE] [_CF][=CE] | [Ec]2 [EA]2 | B>F GF | .D2 z2 | %20
w: ||||||
 [CE]>[CE] [_CF][=CE] | [Ee]2 [Fd]2 | z2 B2 | [A,CA]4 |] %24
w: ||||
V:2
 [A,,E,]>[A,,E,] [A,,=D,][A,,E,] | [A,,A,]2 [C,A,]2 | [E,G,D]>[E,G,D] [E,G,D][E,G,D] | %3
 A,,C, [E,G,]2 | [A,,A,]>[A,,E,] [A,,=D,][A,,E,] | [A,,A,]2 A,,2 | B,,[B,,G,] [B,,A,][B,,A,] | %7
 [E,G,]F, G,F, | [E,G,D]>[E,G,D] [E,G,E][E,G,D] | [A,C]B, CA, | [E,G,E]>[E,G,E] [F,A,E][G,B,E] | %11
 .E2 z2 | [=E,C]>[E,C] [E,C][E,C] | [F,D]2 [F,C]2 | [B,,B,]>[B,,B,] [B,,B,][B,,A,] | %15
 [E,G,]D, C,[B,,G,] | [A,,E,]>[A,,E,] [A,,=D,][A,,E,] | [A,,A,]2 [C,A,]2 | %18
 [E,G,D]>[E,G,D] [E,G,D][E,G,D] | A,,C, [E,G,]2 | [A,,A,]>[A,,E,] [A,,=D,][A,,E,] | %21
 [C,A,]2 [D,A,]2 | z2 D2 | A,,4 |] %24
V:3
 x4 | x4 | x4 | [A,E]-[A,CE-] [B,E-][DE] | x4 | x4 | z2 =DD | z A, B,A, | x4 | z D z C | x4 | %11
 z =E F_G | x4 | x4 | x4 | z B, A,D | x4 | x4 | x4 | [A,E]-[A,CE-] [B,E-][DE] | x4 | x4 | %22
 cA z z/ A/ | x4 |] %24
V:4
 x4 | x4 | x4 | x4 | x4 | x4 | x4 | x4 | x4 | E,2 E,2 | x4 | [A,C]4 | x4 | x4 | x4 | x4 | x4 | x4 | %18
 x4 | x4 | x4 | x4 | [E,A,E][F,A,C] .[E,A,]>C | x4 |] %24
V:5
 x4 | x4 | x4 | x4 | x4 | x4 | x4 | x4 | x4 | x4 | x4 | x4 | x4 | x4 | x4 | x4 | x4 | x4 | x4 | %19
 x4 | x4 | x4 | z2 z G, | x4 |] %24
V:6
 x4 | x4 | x4 | x4 | x4 | x4 | x4 | x4 | x4 | x4 | x4 | x4 | x4 | x4 | x4 | x4 | x4 | x4 | x4 | %19
 x4 | x4 | x4 | z2 z E, | x4 |] %24

